X:46
T:The Bow Swap
R:reel
C:Paul S. Cranford
O:Cape Breton Island
S:http://www.cranfordpub.com
D:currently unrecorded
B:currently unpublished in book form
Z:psc
H:                                                        copyrights Cranford Publications, SOCAN
L:1/8
Q:333
M:C|
K:D
E|DFAd c3 A|B2 dA BAFE|DA,G,A, CA,DF|G2 FD EGFE|
DFAd c3 A|B2 dA BAFE|DA,G,A, CA,DF|G2 FE D2 D:|
||G|:FBdb aBfb|afec BdcB|AEDE CEAc|[1eAcB ABAE|
FBdb aBfb|afec BdcB|AEDE ABcb|f2 ec B3 A:|
[2eAcB ABcA|dFAd cAdA|B3 d BAFE|DA,G,A, CA,DF|G2 FE D2 D|]
